assets/svgs/gamegear.svg

<?xml version="1.0" encoding="UTF-8" standalone="no"?>
<svg
   xmlns:dc="http://purl.org/dc/elements/1.1/"
   xmlns:cc="http://creativecommons.org/ns#"
   xmlns:rdf="http://www.w3.org/1999/02/22-rdf-syntax-ns#"
   xmlns:svg="http://www.w3.org/2000/svg"
   xmlns="http://www.w3.org/2000/svg"
   xmlns:sodipodi="http://sodipodi.sourceforge.net/DTD/sodipodi-0.dtd"
   xmlns:inkscape="http://www.inkscape.org/namespaces/inkscape"
   version="1.1"
   id="svg15"
   sodipodi:docname="gamegear.svg"
   width="264.00009"
   height="31.000019"
   inkscape:version="0.92.5 (2060ec1f9f, 2020-04-08)">
  <metadata
     id="metadata21">
    <rdf:RDF>
      <cc:Work
         rdf:about="">
        <dc:format>image/svg+xml</dc:format>
        <dc:type
           rdf:resource="http://purl.org/dc/dcmitype/StillImage" />
      </cc:Work>
    </rdf:RDF>
  </metadata>
  <defs
     id="defs19" />
  <sodipodi:namedview
     pagecolor="#ffffff"
     bordercolor="#666666"
     borderopacity="1"
     objecttolerance="10"
     gridtolerance="10"
     guidetolerance="10"
     inkscape:pageopacity="0"
     inkscape:pageshadow="2"
     inkscape:window-width="640"
     inkscape:window-height="480"
     id="namedview17"
     showgrid="false"
     inkscape:zoom="2.36"
     inkscape:cx="50.000193"
     inkscape:cy="-18.999655"
     inkscape:window-x="72"
     inkscape:window-y="27"
     inkscape:window-maximized="0"
     inkscape:current-layer="svg15" />
  <g
     transform="matrix(0.44,0,0,0.433041,8.4593059e-5,-1.4013822e-4)"
     id="g13">
    <path
       id="path5"
       d="m 225.74,59.585 c -5.057,6.87 -10.066,8.822 -12.257,9.875 -2.187,1.056 -5.503,1.883 -8.403,1.883 -8.137,0 -14.486,-2.652 -19.051,-7.938 -4.565,-5.308 -6.846,-12.748 -6.846,-22.401 0,-11.408 2.878,-21.085 8.659,-29.072 5.779,-7.962 13.442,-11.93 22.992,-11.93 7.245,0 13.171,2.034 17.811,6.125 4.638,4.071 6.946,10.47 6.946,19.175 h -14.015 c 0,-4.167 -0.92,-7.094 -2.758,-8.78 -1.832,-1.663 -4.466,-2.508 -7.911,-2.508 -5.631,0 -9.973,2.755 -13.074,8.238 -3.075,5.506 -4.641,11.755 -4.641,18.776 0,4.789 1.02,8.708 3.002,11.732 2.01,3.053 5.009,4.565 9.007,4.565 4.167,0 7.389,-1.192 9.722,-3.549 2.308,-2.329 4.019,-5.358 5.111,-9.055 h -13.05 l 2.112,-12.699 h 25.448 l -2.157,12.301 c 0.003,0.006 -1.611,8.391 -6.647,15.262 z"
       style="fill:#ffffff;fill-opacity:1"
       inkscape:connector-curvature="0" />
    <polygon
       id="polygon9"
       points="323.102,69.684 332.751,17.044 311.467,69.684 301.423,69.684 296.785,17.068 289.462,69.684 277.064,69.684 288.397,1.764 305.789,1.764 309.684,49.588 329.23,1.637 346.74,1.764 335.355,69.684 "
       style="fill:#ffffff;fill-opacity:1" />
    <polygon
       id="polygon11"
       points="377.646,41.23 357.629,41.23 355.052,55.692 377.646,55.692 375.419,69.684 339.797,69.684 351.057,1.689 386.254,1.689 384.1,15.777 361.947,15.777 359.714,28.057 379.734,28.057 "
       style="fill:#ffffff;fill-opacity:1" />
    <path
       id="path13"
       d="m 253.028,1.637 -27.385,68.047 h 13.346 l 4.885,-13.273 h 17.464 l 1.14,13.273 h 12.923 L 267.662,1.64 h -14.634 z m -4.912,43.166 9.924,-27.065 2.305,27.065 z"
       style="fill:#ffffff;fill-opacity:1"
       inkscape:connector-curvature="0" />
    <path
       id="path5_1_"
       d="m 455.384,59.585 c -5.06,6.87 -10.063,8.822 -12.254,9.875 -2.19,1.056 -5.506,1.883 -8.406,1.883 -8.134,0 -14.486,-2.652 -19.048,-7.935 -4.568,-5.311 -6.849,-12.751 -6.849,-22.401 0,-11.411 2.878,-21.085 8.659,-29.072 5.778,-7.962 13.442,-11.933 22.995,-11.933 7.242,0 13.171,2.037 17.808,6.128 4.641,4.071 6.946,10.47 6.946,19.175 h -14.012 c 0,-4.167 -0.917,-7.094 -2.755,-8.78 -1.835,-1.663 -4.466,-2.505 -7.914,-2.505 -5.631,0 -9.973,2.752 -13.071,8.235 -3.078,5.506 -4.641,11.755 -4.641,18.776 0,4.789 1.017,8.708 2.999,11.732 2.013,3.053 5.012,4.565 9.007,4.565 4.17,0 7.392,-1.189 9.725,-3.549 2.308,-2.329 4.019,-5.355 5.111,-9.054 h -13.05 l 2.109,-12.7 h 25.451 l -2.16,12.304 c 0,0 -1.614,8.385 -6.65,15.256 z"
       style="fill:#ffffff;fill-opacity:1"
       inkscape:connector-curvature="0" />
    <polygon
       id="polygon15"
       points="499.466,41.23 479.447,41.23 476.846,55.692 499.466,55.692 497.234,69.705 461.611,69.705 472.875,1.689 508.075,1.689 505.917,15.777 483.761,15.777 481.532,28.081 501.524,28.081 "
       style="fill:#ffffff;fill-opacity:1" />
    <path
       id="path17"
       d="m 525.783,1.665 -27.385,68.043 h 13.373 l 4.858,-13.273 h 17.488 l 1.141,13.273 h 12.899 l -7.74,-68.043 z m -4.888,43.135 9.9,-27.062 2.332,27.062 z"
       style="fill:#ffffff;fill-opacity:1"
       inkscape:connector-curvature="0" />
    <path
       id="path19"
       d="m 568.846,31.578 2.978,-16.743 h 7.142 c 2.628,0 4.59,0.471 5.905,1.415 1.313,0.966 1.958,2.876 1.958,5.754 0,3.226 -1.065,5.606 -3.174,7.193 -2.136,1.591 -4.837,2.381 -8.11,2.381 z M 560.784,1.689 549.523,69.705 h 13.02 l 4.369,-25.922 h 6.026 l 10.071,25.922 h 14.933 L 586.778,41.004 c 3.895,-1.982 7.245,-5.283 9.577,-8.729 C 598.784,28.727 600,24.584 600,19.847 600,13.423 598.561,8.807 595.658,5.955 592.783,3.104 588.685,1.689 583.429,1.689 Z"
       style="fill:#ffffff;fill-opacity:1"
       inkscape:connector-curvature="0" />
    <path
       id="path21"
       d="M 10.872,27.816 C 22.361,8.544 38.181,-3.486 46.204,0.907 54.209,5.319 51.388,24.515 39.874,43.774 28.384,63.049 12.567,75.076 4.562,70.682 -3.461,66.274 -0.621,47.072 10.872,27.816 Z"
       style="fill:#ffffff;fill-opacity:1"
       inkscape:connector-curvature="0" />
    <path
       id="path21_2_"
       d="M 62.277,27.816 C 73.77,8.544 89.587,-3.486 97.607,0.907 105.612,5.319 102.791,24.515 91.28,43.774 79.787,63.049 63.97,75.076 55.968,70.682 47.945,66.274 50.784,47.072 62.277,27.816 Z"
       style="fill:#ffffff;fill-opacity:1"
       inkscape:connector-curvature="0" />
    <path
       id="path21_3_"
       d="m 113.683,27.816 c 11.49,-19.275 27.31,-31.302 35.33,-26.912 8.005,4.412 5.183,23.611 -6.328,42.87 -11.492,19.275 -27.306,31.302 -35.311,26.905 -8.026,-4.405 -5.184,-23.607 6.309,-42.863 z"
       style="fill:#ffffff;fill-opacity:1"
       inkscape:connector-curvature="0" />
  </g>
</svg>

<?xml version="1.0" encoding="utf-8"?>
<svg version="1.1" viewBox="0 0 264 31" xmlns="http://www.w3.org/2000/svg">
  <g transform="matrix(0.44, 0, 0, 0.433041, -0.000108, 0.000185)">
    <path id="path5" d="M 225.74 59.585 C 220.683 66.455 215.674 68.407 213.483 69.46 C 211.296 70.516 207.98 71.343 205.08 71.343 C 196.943 71.343 190.594 68.691 186.029 63.405 C 181.464 58.097 179.183 50.657 179.183 41.004 C 179.183 29.596 182.061 19.919 187.842 11.932 C 193.621 3.97 201.284 0.002 210.834 0.002 C 218.079 0.002 224.005 2.036 228.645 6.127 C 233.283 10.198 235.591 16.597 235.591 25.302 L 221.576 25.302 C 221.576 21.135 220.656 18.208 218.818 16.522 C 216.986 14.859 214.352 14.014 210.907 14.014 C 205.276 14.014 200.934 16.769 197.833 22.252 C 194.758 27.758 193.192 34.007 193.192 41.028 C 193.192 45.817 194.212 49.736 196.194 52.76 C 198.204 55.813 201.203 57.325 205.201 57.325 C 209.368 57.325 212.59 56.133 214.923 53.776 C 217.231 51.447 218.942 48.418 220.034 44.721 L 206.984 44.721 L 209.096 32.022 L 234.544 32.022 L 232.387 44.323 C 232.39 44.329 230.776 52.714 225.74 59.585 L 225.74 59.585 Z" style="fill-opacity: 1; fill: rgb(255, 255, 255);"/>
    <polygon id="polygon9" points="346.74 1.764 335.355 69.684 323.102 69.684 332.751 17.044 311.467 69.684 301.423 69.684 296.785 17.068 289.462 69.684 277.064 69.684 288.397 1.764 305.789 1.764 309.684 49.588 329.23 1.637" style="fill-opacity: 1; fill: rgb(255, 255, 255);"/>
    <polygon id="polygon11" points="359.714 28.057 379.734 28.057 377.646 41.23 357.629 41.23 355.052 55.692 377.646 55.692 375.419 69.684 339.797 69.684 351.057 1.689 386.254 1.689 384.1 15.777 361.947 15.777" style="fill-opacity: 1; fill: rgb(255, 255, 255);"/>
    <path id="path13" d="M 253.028 1.637 L 225.643 69.684 L 238.989 69.684 L 243.874 56.411 L 261.338 56.411 L 262.478 69.684 L 275.401 69.684 L 267.662 1.64 L 253.028 1.64 Z M 248.116 44.803 L 258.04 17.738 L 260.345 44.803 L 248.116 44.803 Z" style="fill-opacity: 1; fill: rgb(255, 255, 255);"/>
    <path id="path5_1_" d="M 455.384 59.585 C 450.324 66.455 445.321 68.407 443.13 69.46 C 440.94 70.516 437.624 71.343 434.724 71.343 C 426.59 71.343 420.238 68.691 415.676 63.408 C 411.108 58.097 408.827 50.657 408.827 41.007 C 408.827 29.596 411.705 19.922 417.486 11.935 C 423.264 3.973 430.928 0.002 440.481 0.002 C 447.723 0.002 453.652 2.039 458.289 6.13 C 462.93 10.201 465.235 16.6 465.235 25.305 L 451.223 25.305 C 451.223 21.138 450.306 18.211 448.468 16.525 C 446.633 14.862 444.002 14.02 440.554 14.02 C 434.923 14.02 430.581 16.772 427.483 22.255 C 424.405 27.761 422.842 34.01 422.842 41.031 C 422.842 45.82 423.859 49.739 425.841 52.763 C 427.854 55.816 430.853 57.328 434.848 57.328 C 439.018 57.328 442.24 56.139 444.573 53.779 C 446.881 51.45 448.592 48.424 449.684 44.725 L 436.634 44.725 L 438.743 32.025 L 464.194 32.025 L 462.034 44.329 C 462.034 44.329 460.42 52.714 455.384 59.585 L 455.384 59.585 Z" style="fill-opacity: 1; fill: rgb(255, 255, 255);"/>
    <polygon id="polygon15" points="481.532 28.081 501.524 28.081 499.466 41.23 479.447 41.23 476.846 55.692 499.466 55.692 497.234 69.705 461.611 69.705 472.875 1.689 508.075 1.689 505.917 15.777 483.761 15.777" style="fill-opacity: 1; fill: rgb(255, 255, 255);"/>
    <path id="path17" d="M 525.783 1.665 L 498.398 69.708 L 511.771 69.708 L 516.629 56.435 L 534.117 56.435 L 535.258 69.708 L 548.157 69.708 L 540.417 1.665 L 525.783 1.665 Z M 520.895 44.8 L 530.795 17.738 L 533.127 44.8 L 520.895 44.8 Z" style="fill-opacity: 1; fill: rgb(255, 255, 255);"/>
    <path id="path19" d="M 568.846 31.578 L 571.824 14.835 L 578.966 14.835 C 581.594 14.835 583.556 15.306 584.871 16.25 C 586.184 17.216 586.829 19.126 586.829 22.004 C 586.829 25.23 585.764 27.61 583.655 29.197 C 581.519 30.788 578.818 31.578 575.545 31.578 L 568.846 31.578 L 568.846 31.578 Z M 560.784 1.689 L 549.523 69.705 L 562.543 69.705 L 566.912 43.783 L 572.938 43.783 L 583.009 69.705 L 597.942 69.705 L 586.778 41.004 C 590.673 39.022 594.023 35.721 596.355 32.275 C 598.784 28.727 600 24.584 600 19.847 C 600 13.423 598.561 8.807 595.658 5.955 C 592.783 3.104 588.685 1.689 583.429 1.689 L 560.784 1.689 L 560.784 1.689 Z" style="fill-opacity: 1; fill: rgb(255, 255, 255);"/>
    <path id="path21" d="M 10.872 27.816 C 22.361 8.544 38.181 -3.486 46.204 0.907 C 54.209 5.319 51.388 24.515 39.874 43.774 C 28.384 63.049 12.567 75.076 4.562 70.682 C -3.461 66.274 -0.621 47.072 10.872 27.816 Z" style="fill-opacity: 1; fill: rgb(255, 255, 255);"/>
    <path id="path21_2_" d="M 62.277 27.816 C 73.77 8.544 89.587 -3.486 97.607 0.907 C 105.612 5.319 102.791 24.515 91.28 43.774 C 79.787 63.049 63.97 75.076 55.968 70.682 C 47.945 66.274 50.784 47.072 62.277 27.816 Z" style="fill-opacity: 1; fill: rgb(255, 255, 255);"/>
    <path id="path21_3_" d="M 113.683 27.816 C 125.173 8.541 140.993 -3.486 149.013 0.904 C 157.018 5.316 154.196 24.515 142.685 43.774 C 131.193 63.049 115.379 75.076 107.374 70.679 C 99.348 66.274 102.19 47.072 113.683 27.816 Z" style="fill-opacity: 1; fill: rgb(255, 255, 255);"/>
  </g>
</svg>
